X: 1021
T: Struan Robertson's Rant.   a Strathspey.
%R: strathspey
B: Niel Gow & Sons "Complete Repository" v.1 p.2 #1
Z: 2021 John Chambers <jc:trillian.mit.edu>
M: C
L: 1/8
Q: "SLOWISH"
K: Em
% - - - - - - - - - -
% Voice 1 formatted for proofreading.
V: 1 staves=2
e |\
E/E/E G>A TB>AB<d | D/D/D F>E (D/E/F/G/) A>F | E/E/E TG>A TB>AB<e | d>Bd>F E/E/E E :: g | e>fge bege |
Tf>edf a/g/f/e/ df | e>fg>e b>eg>e | {^c}d>B AF E/E/E E :: B |!f! TG>BE>B G>BE>B | TF>AD>A FADA |
G>BE>B GBE>g | f>da>f e/e/e e :| f | .g.b.e.b .g.b.e.b | fada fada | gbeb gbeg |
!f! Tf>da>f e/e/e e>f || gbeb gbeb | fada fada |!f! gbgb faef | d/^c/B/A/ d>F E/E/E E |]
% - - - - - - - - - -
% Voice 2 preserves the book's staff layout.
V: 2 clef=bass middle=d
z |\
[e2E2][e2E2] [e2E2][e2E2] | [d2D2][d2D2] [d2D2][d2D2] |\
[e2E2][e2E2] [e2E2][e2E2] | b2B2 e2e :: z |\
[e'2e2][e'2e2] [e'2e2][e'2e2] | [d'2d2][d'2d2] [d'2d2][d'2d2] |
[e'2e2][e'2e2] [e'2e2][e'2e2] | b2B2 e2e :: z |\
[e2E2][e2E2] [e2E2][e2E2] | [d2D2][d2D2] [d2D2][d2D2] |\
[e2E2][e2E2] [e2E2][e2E2] | a2b2 e2e :| z |!p! \
[e'2e2][e'2e2] [e'2e2][e'2e2] |
[d'2d2][d'2d2] [d'2d2][d'2d2] |\
[e'2e2][e'2e2] [e'2e2][e'2e2] |!f! a2b2 e2e2 ||!p! \
[e'2e2][e'2e2] [e'2e2][e'2e2] | [d2D2][d2D2] [d2D2][d2D2] |\
e2e2 f2g2 | a2b2 e2e |]


